assets/icons/qvision/strikethrough_s.svg

<svg xmlns="http://www.w3.org/2000/svg" enable-background="new 0 0 24 24" height="24" viewBox="0 0 24 24" width="24"><g><rect fill="none" height="24" width="24"/></g><g><g><g><path d="M6.85,7.08C6.85,4.37,9.45,3,12.24,3c1.64,0,3,0.49,3.9,1.28c0.77,0.65,1.46,1.73,1.46,3.24h-3.01 c0-0.31-0.05-0.59-0.15-0.85c-0.29-0.86-1.2-1.28-2.25-1.28c-1.86,0-2.34,1.02-2.34,1.7c0,0.48,0.25,0.88,0.74,1.21 C10.97,8.55,11.36,8.78,12,9H7.39C7.18,8.66,6.85,8.11,6.85,7.08z M21,12v-2H3v2h9.62c1.15,0.45,1.96,0.75,1.96,1.97 c0,1-0.81,1.67-2.28,1.67c-1.54,0-2.93-0.54-2.93-2.51H6.4c0,0.55,0.08,1.13,0.24,1.58c0.81,2.29,3.29,3.3,5.67,3.3 c2.27,0,5.3-0.89,5.3-4.05c0-0.3-0.01-1.16-0.48-1.94H21V12z"/></g></g></g></svg>

<svg width="24" height="24" viewBox="0 0 24 24" fill="none" xmlns="http://www.w3.org/2000/svg">
<g clip-path="url(#clip0_147_2767)">
<path d="M6.85 7.08C6.85 4.37 9.45 3 12.24 3C13.88 3 15.24 3.49 16.14 4.28C16.91 4.93 17.6 6.01 17.6 7.52H14.59C14.59 7.21 14.54 6.93 14.44 6.67C14.15 5.81 13.24 5.39 12.19 5.39C10.33 5.39 9.85 6.41 9.85 7.09C9.85 7.57 10.1 7.97 10.59 8.3C10.97 8.55 11.36 8.78 12 9H7.39C7.18 8.66 6.85 8.11 6.85 7.08ZM21 12V10H3V12H12.62C13.77 12.45 14.58 12.75 14.58 13.97C14.58 14.97 13.77 15.64 12.3 15.64C10.76 15.64 9.37 15.1 9.37 13.13H6.4C6.4 13.68 6.48 14.26 6.64 14.71C7.45 17 9.93 18.01 12.31 18.01C14.58 18.01 17.61 17.12 17.61 13.96C17.61 13.66 17.6 12.8 17.13 12.02H21V12Z" fill="#323232"/>
</g>
<defs>
<clipPath id="clip0_147_2767">
<rect width="24" height="24" fill="white"/>
</clipPath>
</defs>
</svg>
